src/lib/packages/icons/src/assets/line/angles-right.svg

<svg width="24" height="24" viewBox="0 0 24 24" fill="none" xmlns="http://www.w3.org/2000/svg">
<path d="M19.5301 12.5301L12.5301 19.5301C12.3841 19.6761 12.192 19.75 12 19.75C11.808 19.75 11.616 19.6771 11.47 19.5301C11.177 19.2371 11.177 18.762 11.47 18.469L17.94 11.999L11.47 5.52908C11.177 5.23608 11.177 4.76104 11.47 4.46804C11.763 4.17504 12.238 4.17504 12.531 4.46804L19.531 11.468C19.823 11.763 19.8231 12.2371 19.5301 12.5301ZM12.5301 11.47L5.53005 4.46999C5.23705 4.17699 4.76202 4.17699 4.46902 4.46999C4.17602 4.76299 4.17602 5.23803 4.46902 5.53103L10.939 12.001L4.46902 18.471C4.17602 18.764 4.17602 19.239 4.46902 19.532C4.61502 19.678 4.80705 19.752 4.99905 19.752C5.19105 19.752 5.38308 19.679 5.52908 19.532L12.5291 12.532C12.8231 12.237 12.8231 11.763 12.5301 11.47Z" fill="currentColor"/>
</svg>

<svg xmlns="http://www.w3.org/2000/svg" width="24" height="24" fill="none"><path fill="currentColor" d="m19.53 12.53-7 7a.748.748 0 0 1-1.06 0 .75.75 0 0 1 0-1.061l6.47-6.47-6.47-6.47a.75.75 0 0 1 1.061-1.061l7 7a.752.752 0 0 1 0 1.062Zm-7-1.06-7-7a.75.75 0 1 0-1.06 1.061l6.47 6.47-6.47 6.47a.75.75 0 0 0 1.06 1.061l7-7a.75.75 0 0 0 .001-1.062Z"/></svg>
